web-magabank/image/home/icon-conta-digital.svg

<svg width="53" height="53" viewBox="0 0 53 53" fill="none" xmlns="http://www.w3.org/2000/svg">
<circle cx="26.5459" cy="26.4746" r="25.9428" fill="white" stroke="#0181F4"/>
<path fill-rule="evenodd" clip-rule="evenodd" d="M31.6498 13.7149H21.442C20.2681 13.7162 19.3168 14.6676 19.3154 15.8415V37.1077C19.3168 38.2815 20.2681 39.2329 21.442 39.2343H31.6498C32.8236 39.2329 33.775 38.2815 33.7764 37.1077V15.8415C33.775 14.6676 32.8236 13.7162 31.6498 13.7149ZM32.9257 34.1304H21.8673V34.981H32.9257V37.1077C32.9257 37.8124 32.3545 38.3836 31.6498 38.3836H21.442C20.7373 38.3836 20.166 37.8124 20.166 37.1077V17.9681H31.2244V17.1174H20.166V15.8415C20.166 15.1368 20.7373 14.5655 21.442 14.5655H31.6498C32.3545 14.5655 32.9257 15.1368 32.9257 15.8415V34.1304ZM26.9712 36.257H26.1205V37.1077H26.9712V36.257ZM23.1433 15.4161H23.9939V16.2668H23.1433V15.4161ZM25.6952 15.4161H24.8446V16.2668H25.6952V15.4161ZM21.0167 20.9454V19.2441C21.0167 19.0092 21.2071 18.8187 21.442 18.8187H23.1433V19.6694H21.8673V20.9454H21.0167Z" fill="#0D181D"/>
</svg>

<svg width="53" height="53" fill="none" xmlns="http://www.w3.org/2000/svg"><circle cx="26.546" cy="26.475" r="25.943" fill="#fff" stroke="#0181F4"/><path fill-rule="evenodd" clip-rule="evenodd" d="M31.65 13.715H21.442a2.13 2.13 0 00-2.127 2.127v21.266a2.13 2.13 0 002.127 2.126H31.65a2.13 2.13 0 002.126-2.126V15.842a2.13 2.13 0 00-2.126-2.127zm1.276 20.415H21.867v.851h11.059v2.127c0 .704-.572 1.276-1.276 1.276H21.442a1.276 1.276 0 01-1.276-1.276v-19.14h11.058v-.85H20.166v-1.276c0-.705.571-1.277 1.276-1.277H31.65c.705 0 1.276.572 1.276 1.277V34.13zm-5.955 2.127h-.85v.85h.85v-.85zm-3.828-20.84h.85v.85h-.85v-.85zm2.552 0h-.85v.85h.85v-.85zm-4.678 5.528v-1.7c0-.236.19-.426.425-.426h1.701v.85h-1.276v1.276h-.85z" fill="#0D181D"/></svg>
